assets/lut_64-DhHj_L8v.3dl
# Created with LUTCalc v4.06 by Ben Turley February 2024 #
# IDENTIFICATION: LUTCalc - 3DLUT
# CREATOR: LUTCalc v4.06
# USER: LUTCalc
# DATA: 2024-07-18T12:01:45 #
# NUMBER OF COLUMNS: 3
# NUMBER OF ROWS: 32768
# NUMBER OF NODES: 32
# INPUT RANGE: 10
# OUTPUT RANGE: 12
# TITLE : Custom LUT
# DESCRIPTION : S-Log3/Sony S-Gamut3.cine (Venice) -> LA - lutCreatorJs_64/LA - lutCreatorJs_64, Stop Shift 0.00, Black Level 10.88% IRE, Data Input -> Legal Output
0 33 66 99 132 165 198 231 264 297 330 363 396 429 462 495 528 561 594 627 660 693 726 759 792 825 858 891 924 957 990 1023
189 224 240
190 224 290
190 237 339
187 238 407
181 232 496
175 216 609
165 213 769
162 204 904
162 199 1062
162 196 1200
162 191 1348
162 184 1471
162 180 1609
162 172 1734
162 166 1863
162 157 2010
162 150 2167
162 140 2288
162 155 2454
193 162 2560
527 162 2724
805 162 2902
1086 162 3039
1238 162 3209
1145 162 3038
1856 162 3464
1836 162 3588
1751 126 3515
1606 0 3060
1581 0 4095
1210 0 179
2419 0 4055
188 276 257
188 274 305
186 289 353
179 289 426
172 286 519
163 276 643
162 275 803
162 266 948
162 251 1096
162 224 1233
162 206 1371
162 202 1493
162 197 1626
162 193 1757
162 186 1889
162 178 2026
162 170 2183
162 156 2308
162 158 2464
183 162 2573
492 162 2724
793 162 2897
1069 162 3031
1232 162 3201
1167 162 3054
1836 162 3459
1824 162 3580
1752 127 3519
1619 0 3078
1592 0 4095
1232 0 182
2419 0 4055
187 339 272
184 338 321
184 352 368
173 352 458
165 365 552
162 355 677
162 350 837
162 334 983
162 326 1118
162 308 1256
162 288 1390
162 268 1515
162 249 1643
162 227 1766
162 206 1905
162 199 2035
162 189 2200
162 173 2331
162 162 2467
175 162 2585
467 162 2723
774 162 2884
1051 162 3021
1225 162 3192
1190 162 3068
1816 162 3454
1812 162 3574
1753 129 3522
1632 0 3099
1604 0 4095
1255 0 185
2418 0 4055
184 452 274
173 447 322
171 457 407
166 459 483
162 468 603
162 468 725
162 469 880
162 453 1017
162 433 1149
162 408 1287
162 382 1415
162 365 1539
162 344 1666
162 320 1781
162 307 1916
162 275 2051
162 229 2208
162 197 2333
162 177 2472
168 162 2595
429 162 2723
752 162 2870
1032 162 3011
1219 162 3182
1212 162 3083
1796 162 3448
1801 162 3567
1755 130 3525
1645 0 3122
1615 0 4095
1278 0 188
2418 1 4055
172 607 277
158 609 338
161 612 409
162 613 505
162 608 639
162 607 763
162 598 913
162 593 1053
162 566 1188
162 541 1319
162 512 1439
162 485 1553
162 477 1689
162 454 1805
162 425 1938
162 386 2067
162 349 2222
162 286 2348
162 203 2478
164 176 2603
372 162 2722
732 162 2857
1012 162 3000
1211 162 3172
1233 162 3099
1777 162 3442
1791 162 3561
1757 131 3528
1658 0 3146
1627 0 4095
1300 0 192
2418 4 4055
155 772 233
162 780 318
162 797 404
162 782 528
162 799 670
162 803 809
162 787 967
162 766 1087
162 733 1224
162 703 1345
162 675 1464
162 643 1584
162 625 1710
162 589 1826
162 565 1958
162 522 2084
162 481 2234
162 426 2361
162 333 2486
163 207 2611
322 169 2724
711 162 2846
992 162 2988
1204 162 3159
1254 162 3118
1760 162 3435
1782 162 3556
1759 133 3532
1670 0 3168
1639 0 4095
1321 0 195
2418 6 4055
162 980 204
162 975 292
162 985 391
162 986 513
162 987 675
162 1004 830
162 995 999
162 974 1126
162 949 1262
162 925 1381
162 884 1497
162 848 1613
162 824 1741
162 796 1856
162 773 1992
162 735 2120
162 688 2263
162 619 2379
162 530 2497
162 419 2623
294 250 2737
688 167 2848
963 162 2973
1193 162 3138
1281 162 3143
1736 162 3425
1770 162 3548
1762 134 3536
1687 0 3192
1655 0 4095
1350 0 200
2418 10 4055
162 1159 199
162 1150 263
162 1162 396
162 1162 480
162 1168 642
162 1172 828
162 1193 1009
162 1167 1148
162 1160 1293
162 1121 1406
162 1087 1527
162 1049 1639
162 1018 1763
162 988 1886
162 962 2017
162 934 2143
162 896 2285
162 853 2401
162 795 2527
162 709 2641
221 553 2752
662 345 2862
948 172 2979
1177 162 3105
1315 162 3171
1700 162 3409
1757 162 3538
1766 137 3542
1710 0 3226
1677 0 4095
1387 0 206
2417 15 4055
162 1336 190
162 1325 257
162 1329 374
162 1357 498
162 1351 638
162 1346 795
162 1369 1007
162 1377 1174
162 1364 1304
162 1325 1422
162 1293 1556
162 1258 1672
162 1225 1786
162 1192 1910
162 1161 2043
162 1135 2178
162 1094 2310
162 1056 2428
162 1009 2547
162 950 2662
200 862 2778
646 742 2887
938 481 2988
1167 179 3100
1354 162 3202
1649 162 3385
1741 162 3525
1773 140 3549
1737 0 3276
1705 0 4095
1432 0 282
2417 22 4055
162 1492 185
162 1512 261
162 1501 368
162 1525 501
162 1539 636
162 1501 774
162 1549 983
162 1564 1145
162 1560 1307
162 1524 1442
162 1502 1562
162 1468 1695
162 1429 1817
162 1396 1939
162 1372 2070
162 1337 2201
162 1298 2338
162 1258 2452
162 1213 2562
162 1171 2680
190 1104 2795
620 1020 2902
938 896 3016
1168 675 3116
1367 197 3224
1579 162 3355
1725 162 3510
1785 145 3559
1771 0 3334
1741 0 4095
1497 0 430
2416 31 4055
162 1686 190
162 1708 276
162 1701 376
162 1709 511
162 1703 663
162 1688 785
162 1705 984
162 1726 1143
162 1722 1301
162 1726 1450
162 1732 1582
162 1682 1725
162 1646 1846
162 1608 1971
162 1573 2104
162 1533 2227
162 1500 2364
162 1463 2466
162 1424 2583
162 1379 2696
177 1331 2810
595 1264 2920
926 1177 3028
1165 1049 3136
1373 843 3248
1549 297 3346
1712 162 3491
1804 150 3574
1819 0 3422
1787 0 4095
1585 0 774
2415 43 4055
162 1888 207
162 1856 286
162 1850 424
162 1891 545
162 1864 669
162 1843 797
162 1891 966
162 1892 1152
162 1913 1291
162 1886 1430
162 1884 1623
162 1894 1744
162 1864 1879
162 1819 1991
162 1790 2141
162 1751 2255
162 1713 2388
162 1669 2493
162 1635 2609
162 1589 2711
162 1542 2826
541 1485 2934
911 1418 3042
1165 1337 3154
1384 1215 3265
1558 1009 3370
1712 460 3489
1837 158 3595
1886 0 3526
1856 0 4079
1692 0 1377
2414 60 4055
162 2035 241
162 2062 337
162 2028 444
162 2079 567
162 2028 685
162 2047 849
162 2092 1001
162 1993 1052
162 2050 1277
162 2091 1442
162 2088 1603
162 2107 1746
162 2075 1893
162 2036 2023
162 2000 2182
162 1938 2266
162 1910 2407
162 1872 2512
162 1829 2621
162 1791 2728
163 1746 2837
499 1700 2949
900 1649 3053
1163 1586 3171
1384 1499 3279
1565 1380 3391
1722 1170 3507
1862 650 3614
1975 45 3661
1958 0 4028
1815 0 2134
2412 81 4055
162 2212 271
162 2211 435
162 2211 476
162 2161 597
162 2271 721
162 2217 876
162 2246 1006
162 2188 1098
162 2164 1206
162 2259 1435
162 2242 1620
162 2206 1738
162 2303 1948
162 2229 2061
162 2214 2215
162 2151 2288
162 2100 2411
162 2080 2542
162 2036 2641
162 1997 2752
162 1956 2856
437 1904 2958
886 1862 3067
1166 1809 3178
1388 1746 3292
1575 1659 3391
1733 1544 3518
1878 1343 3638
2027 849 3736
2084 10 3943
1991 0 2938
2410 109 4055
162 2322 397
162 2357 466
162 2375 490
162 2289 669
162 2526 896
162 2373 905
162 2455 1035
162 2270 1023
162 2366 1250
162 2427 1389
162 2451 1628
162 2461 1714
162 2491 1909
162 2471 2114
162 2415 2215
162 2330 2247
162 2291 2456
162 2288 2574
162 2235 2661
162 2193 2765
162 2152 2872
313 2110 2977
856 2069 3076
1161 2019 3189
1393 1973 3299
1581 1906 3407
1750 1824 3530
1897 1711 3641
2050 1508 3745
2165 1023 3851
2183 123 3712
2406 146 4054
162 2415 463
162 2526 644
162 2556 597
162 2536 686
162 2645 955
162 2566 839
162 2586 1126
162 2484 1104
162 2445 1157
162 2582 1437
162 2556 1611
162 2465 1703
162 2669 1898
162 2491 2105
162 2661 2292
162 2478 2279
162 2402 2424
162 2504 2619
162 2428 2685
162 2382 2782
162 2349 2887
190 2305 2989
816 2263 3092
1152 2220 3201
1398 2179 3310
1596 2127 3418
1766 2066 3531
1917 1986 3643
2071 1870 3745
2201 1679 3851
2298 1194 3948
2402 194 4054
131 2691 518
132 2585 487
137 2646 635
158 2677 779
162 2768 953
162 2832 935
162 2567 962
162 2640 1178
162 2624 1392
162 2472 1345
162 2717 1573
162 2677 1563
162 2750 2016
162 2833 2119
162 2621 2082
162 2736 2357
162 2597 2493
162 2659 2545
162 2632 2710
162 2563 2770
162 2553 2908
162 2514 3010
738 2469 3111
1131 2426 3210
1388 2377 3319
1604 2337 3429
1775 2277 3536
1939 2210 3643
2093 2139 3742
2228 2028 3841
2336 1832 3944
2428 1367 4041
0 2820 583
0 2811 532
0 2793 589
0 2820 983
0 2821 974
0 2703 1003
110 2783 1158
108 2742 1126
120 2747 1206
162 2819 1240
162 2720 1447
162 2692 1502
162 3065 2084
162 3027 2019
162 2773 2043
162 2905 2350
162 2720 2474
162 2805 2588
162 2798 2635
162 2761 2747
162 2736 2951
162 2690 3024
493 2649 3124
1068 2608 3225
1370 2568 3332
1594 2526 3436
1785 2482 3547
1963 2433 3657
2114 2374 3739
2258 2298 3837
2367 2172 3931
2467 1992 4022
135 2648 494
119 3097 731
125 2790 612
143 3300 1034
117 3109 1068
50 2747 1030
0 2989 1422
0 2936 1254
0 3059 1456
0 2943 1444
0 2794 1541
0 2812 1445
0 3079 2054
0 3313 2026
0 2906 2175
0 3008 2408
0 2932 2604
1 2943 2593
50 2845 2756
73 2878 2787
71 3019 3004
131 2888 3074
167 2827 3148
908 2781 3245
1318 2741 3346
1578 2695 3454
1786 2655 3556
1973 2612 3657
2145 2566 3743
2301 2521 3835
2419 2445 3915
2523 2332 4001
174 3064 835
181 2988 755
181 2763 584
182 3269 948
181 2836 1110
170 3048 989
186 3094 1376
163 2954 1130
158 2961 1412
167 3086 1462
159 2994 1544
154 2692 1488
174 3220 2038
178 3516 2222
153 3185 1982
179 3131 2516
168 2754 2381
170 2907 2354
183 3066 2533
180 3044 2622
207 3234 3063
192 3109 3223
196 2948 3162
416 2948 3261
1179 2909 3364
1534 2859 3465
1777 2818 3568
1985 2777 3669
2163 2737 3751
2346 2705 3834
2472 2659 3917
2567 2584 3988
192 3554 1098
190 3440 953
192 2686 563
191 3043 620
180 2841 958
190 2673 1346
195 3198 1377
179 3346 1228
179 2969 1553
178 3143 1368
185 3344 1558
177 2976 1703
193 3283 1971
186 2780 2209
178 3180 1972
196 3303 2169
190 2838 2280
201 3240 2702
190 3468 2500
198 3285 2758
202 2839 3007
288 3242 2868
287 3040 3177
458 3168 3331
722 3071 3383
1420 3027 3480
1744 2979 3582
1978 2937 3680
2169 2899 3761
2362 2861 3837
2527 2840 3909
2645 2790 3982
179 3306 1119
165 2819 799
195 3467 1164
167 2828 474
181 2867 1403
162 2590 1313
251 3772 1955
169 3069 1310
187 3046 1807
165 3446 1661
173 3504 1537
164 2721 1249
194 2966 1887
190 2661 2061
193 3431 1759
203 3260 2444
173 3552 2256
196 3556 2752
226 3374 2796
192 3004 2526
198 3203 3017
357 3111 3204
336 3232 3300
610 3404 3444
572 3140 3463
972 3183 3500
1640 3138 3599
1946 3092 3692
2168 3056 3769
2371 3014 3844
2548 2984 3906
2706 2980 3977
158 3089 744
194 2747 1373
191 3377 490
188 3088 1330
193 2955 819
459 3537 1892
297 3609 2064
176 2860 1301
199 3172 995
187 3538 1080
295 2906 1851
177 2320 1022
196 3553 1772
169 3410 1986
279 3197 2357
345 3819 2659
206 2866 2204
288 2791 2566
221 2616 1994
182 2700 2100
347 3448 2537
228 3640 3128
321 2942 2655
678 3735 3714
468 3172 3240
665 3364 3413
1223 3292 3618
1855 3246 3708
2146 3195 3784
2362 3158 3853
2550 3127 3915
2722 3110 3967
196 3431 1535
144 3281 1111
176 3875 2181
177 3608 1579
215 4032 2233
200 3607 1661
166 3494 1314
175 4051 2210
135 2132 1244
145 2140 1647
190 3453 1283
161 2608 1684
204 3944 1649
183 2958 1692
209 3890 2617
362 3901 2310
262 2738 1954
208 2281 2907
175 3278 3079
153 2924 1649
193 3148 2988
197 2868 2201
475 3236 3017
701 3958 3216
298 3281 3036
537 3470 3468
998 3338 3539
1486 3383 3723
2070 3342 3805
2344 3302 3869
2556 3260 3918
2713 3219 3971
1022 3713 2680
169 3252 1317
160 2186 306
188 3011 928
570 4095 1514
459 3986 1739
309 3734 1478
288 3623 1523
181 3625 1089
616 4081 2458
184 1081 1484
167 2367 1378
456 3613 2137
208 4008 1722
158 4062 1803
177 3266 2457
1006 4095 2523
173 3399 2625
162 4095 3647
200 3146 2886
175 3874 2121
203 3794 3070
206 4095 3176
311 3592 3143
843 3886 4015
474 3208 3840
813 3817 3526
933 3473 3789
1734 3481 3815
2281 3440 3878
2531 3389 3926
2710 3353 3981
183 3736 1075
201 4095 1300
1139 4095 1855
632 4043 1881
226 2191 1907
189 236 1931
195 1798 1956
158 491 1614
240 1549 2852
217 1259 2438
135 2499 1287
152 3953 1392
142 3709 2061
172 4095 1800
109 2777 1387
196 3952 2442
161 4010 3098
134 3131 2651
128 3292 3736
173 2005 1378
158 377 377
185 4095 3297
196 4023 3604
200 3149 3993
184 3727 3163
237 3218 3542
870 3624 4095
288 3461 3578
1477 3230 3814
1964 3563 3893
2468 3516 3942
2698 3472 3985
1333 4095 3210
1194 2803 1720
1027 86 187
1196 174 280
1135 1336 593
192 2864 193
132 3806 185
132 3805 2769
144 805 2035
204 358 507
98 4095 2750
131 3187 1862
1323 3805 337
1253 4019 3736
168 3197 2711
1209 3718 4095
110 3287 3049
96 3650 2176
122 4095 2071
154 2887 609
159 3819 2192
187 3831 4095
964 4095 3545
187 3844 2682
850 4080 3941
295 1434 3218
184 3872 3495
203 182 3618
313 3682 3743
957 3660 2708
2185 3647 3948
2636 3595 3996
1780 3887 2792
272 3886 880
133 3886 146
136 3887 153
171 3887 201
190 2935 775
164 0 1596
148 0 2143
165 0 1747
124 0 2365
156 0 161
584 21 2387
167 1588 4095
1991 4095 4095
1068 1671 3119
467 4095 2191
89 2179 1668
187 4095 2474
158 3887 4003
66 203 1442
464 153 204
205 123 4095
197 3897 4025
902 3897 3000
333 2099 3401
74 3895 3524
782 4095 3963
823 2920 3113
172 2976 119
193 3839 1920
2083 3806 4095
2375 3715 4011
75 4095 205
114 4095 194
150 4095 184
182 4095 195
