src/assets/lut.3dl
# Created with LUTCalc v4.03 by Ben Turley January 2022 #
# IDENTIFICATION: LUTCalc - 3DLUT
# CREATOR: LUTCalc v4.03
# USER: LUTCalc
# DATA: 2023-09-15T09:43:26 #
# NUMBER OF COLUMNS: 3
# NUMBER OF ROWS: 32768
# NUMBER OF NODES: 32
# INPUT RANGE: 10
# OUTPUT RANGE: 12
# TITLE : Custom LUT
# DESCRIPTION : S-Log3/Sony S-Gamut3.cine (Venice) -> LA - lut/LA - lut, Stop Shift 0.00, Black Level 10.29% IRE, Data Input -> Legal Output
0 33 66 99 132 165 198 231 264 297 330 363 396 429 462 495 528 561 594 627 660 693 726 759 792 825 858 891 924 957 990 1023
28 21 23
49 72 148
71 124 305
88 164 431
86 215 568
111 251 707
132 284 846
151 306 980
157 315 1108
167 326 1243
188 353 1387
212 379 1519
226 403 1647
229 433 1774
243 469 1900
301 514 2014
375 547 2122
469 587 2237
627 639 2368
752 668 2477
876 657 2577
987 646 2672
1094 571 2749
1206 460 2816
1325 301 2869
1448 20 2904
1583 0 2935
1814 0 3229
2000 0 3405
2188 0 3504
2419 0 3628
2728 0 3871
70 135 75
48 150 174
51 166 309
59 191 436
71 234 575
103 273 714
123 305 849
147 326 980
156 331 1107
166 340 1241
186 370 1389
208 398 1521
222 423 1649
221 455 1777
230 490 1901
286 533 2018
365 575 2129
460 623 2246
615 676 2370
744 709 2480
868 706 2581
980 696 2674
1087 627 2750
1201 520 2817
1321 361 2872
1445 76 2909
1580 0 2940
1808 0 3225
1995 0 3399
2183 0 3499
2413 0 3623
2722 0 3865
114 297 120
80 290 211
48 273 322
52 276 446
80 305 583
78 327 722
101 352 851
129 375 981
146 377 1110
165 385 1245
185 414 1393
200 439 1529
211 462 1658
213 483 1782
215 509 1902
270 557 2020
354 602 2136
451 659 2255
603 715 2373
737 750 2483
861 755 2586
973 747 2676
1081 684 2751
1195 581 2818
1317 423 2874
1442 131 2913
1578 0 2946
1803 0 3222
1990 0 3394
2178 0 3495
2407 0 3618
2716 0 3859
131 451 179
103 451 256
83 437 354
62 423 465
84 427 594
88 436 730
90 448 850
107 464 987
130 478 1123
159 495 1258
181 513 1403
191 523 1542
198 532 1664
204 545 1786
208 552 1908
248 591 2030
334 639 2152
440 696 2271
591 754 2379
729 792 2487
853 804 2590
966 797 2679
1075 741 2752
1190 641 2819
1312 484 2877
1439 188 2918
1576 0 2952
1798 0 3219
1984 0 3388
2173 0 3490
2401 0 3613
2710 0 3853
137 601 256
128 601 302
122 586 393
115 570 505
111 564 625
112 564 750
114 572 875
111 584 998
122 600 1134
145 617 1271
163 629 1417
178 636 1552
191 637 1670
197 643 1788
207 645 1912
234 651 2051
315 690 2175
421 730 2294
575 791 2392
720 833 2494
846 851 2595
959 846 2681
1068 798 2753
1185 701 2820
1308 546 2879
1436 259 2922
1574 0 2957
1793 0 3215
1979 0 3383
2167 0 3486
2395 0 3608
2704 0 3847
156 744 299
157 745 340
157 735 430
147 725 529
144 716 647
146 712 781
146 712 901
133 716 1019
126 726 1148
129 735 1283
146 744 1420
162 750 1555
172 753 1678
181 754 1793
205 760 1921
234 755 2065
303 769 2199
402 774 2321
558 835 2419
711 882 2515
839 897 2605
952 896 2683
1062 853 2754
1179 761 2821
1304 608 2881
1433 326 2927
1571 0 2963
1788 0 3212
1973 0 3377
2162 0 3481
2390 0 3603
2698 0 3841
177 878 322
186 880 371
182 877 442
170 869 543
176 870 676
178 866 806
175 858 928
160 852 1044
144 851 1164
135 859 1293
150 867 1424
162 874 1555
155 877 1683
151 878 1810
192 894 1945
238 899 2078
288 900 2213
394 896 2355
542 909 2476
697 958 2570
828 969 2643
943 964 2693
1053 930 2755
1172 840 2823
1298 691 2885
1429 417 2933
1568 13 2971
1781 0 3207
1966 0 3370
2155 0 3474
2382 0 3596
2689 0 3832
191 1009 325
203 1012 367
208 1014 433
204 1013 548
203 1017 696
204 1016 832
200 1005 951
182 993 1067
155 982 1180
143 982 1302
163 990 1433
168 996 1566
155 1005 1691
146 1007 1823
172 1014 1958
229 1023 2093
286 1027 2226
387 1036 2368
539 1044 2537
685 1060 2667
812 1088 2731
931 1077 2749
1042 1030 2766
1162 950 2825
1291 805 2889
1423 544 2941
1564 127 2982
1771 0 3201
1956 0 3359
2145 0 3465
2372 0 3587
2678 0 3821
193 1136 308
205 1140 348
218 1146 425
223 1154 556
220 1164 714
225 1164 857
221 1152 976
200 1138 1091
168 1123 1200
157 1111 1318
169 1112 1449
178 1118 1587
164 1132 1713
144 1139 1840
156 1142 1969
202 1146 2101
273 1148 2248
374 1165 2385
516 1184 2544
686 1203 2712
820 1215 2824
939 1242 2869
1042 1205 2860
1152 1097 2845
1280 955 2896
1416 713 2953
1558 307 2998
1759 0 3192
1943 0 3346
2132 0 3452
2359 0 3574
2662 0 3805
196 1259 298
208 1265 342
216 1277 437
226 1293 580
239 1307 734
245 1308 879
244 1297 1005
225 1283 1120
197 1268 1229
180 1254 1344
188 1247 1473
194 1249 1606
178 1261 1731
164 1266 1852
173 1264 1981
196 1261 2113
250 1272 2258
363 1288 2399
496 1317 2558
666 1342 2732
819 1356 2885
953 1384 2969
1068 1396 3009
1171 1360 2992
1274 1172 2935
1406 936 2968
1550 556 3019
1742 30 3181
1925 0 3327
2114 0 3435
2341 0 3558
2640 0 3784
208 1379 312
222 1387 363
234 1405 472
248 1424 617
268 1438 772
268 1442 912
259 1434 1032
248 1427 1149
225 1416 1261
205 1403 1376
198 1395 1496
203 1393 1621
201 1392 1737
190 1391 1854
200 1386 1986
212 1379 2124
226 1383 2262
324 1412 2400
470 1442 2565
651 1472 2745
803 1487 2897
942 1511 3040
1078 1550 3115
1192 1565 3139
1298 1512 3115
1403 1263 3033
1540 888 3047
1719 349 3165
1901 0 3302
2090 0 3412
2318 0 3537
2612 0 3758
235 1496 369
245 1504 415
256 1522 512
271 1542 652
289 1557 801
293 1567 944
288 1566 1066
269 1563 1183
245 1560 1294
224 1552 1406
211 1546 1524
205 1541 1638
212 1528 1752
208 1515 1863
210 1507 1993
218 1502 2131
229 1509 2266
273 1531 2398
422 1562 2570
615 1596 2749
783 1627 2913
927 1648 3078
1079 1676 3210
1200 1713 3280
1312 1725 3280
1422 1664 3239
1534 1362 3121
1689 820 3146
1869 122 3268
2059 0 3381
2286 0 3512
2574 0 3725
262 1613 440
273 1623 485
279 1639 568
287 1655 690
304 1667 830
314 1683 972
308 1693 1097
279 1692 1212
244 1697 1327
222 1696 1438
207 1689 1555
207 1682 1669
210 1669 1779
215 1646 1896
219 1630 2016
223 1628 2144
248 1638 2271
286 1654 2406
358 1676 2562
539 1704 2743
750 1748 2919
910 1786 3103
1065 1811 3253
1197 1831 3372
1317 1865 3414
1431 1868 3416
1542 1802 3374
1661 1492 3230
1826 732 3223
2018 0 3339
2244 0 3475
2525 0 3680
277 1730 511
284 1740 556
285 1754 625
295 1766 731
307 1776 865
307 1796 1002
294 1812 1122
273 1822 1239
252 1827 1350
224 1832 1464
198 1832 1580
191 1816 1690
201 1802 1816
222 1782 1933
225 1758 2041
232 1755 2160
259 1762 2280
302 1776 2415
345 1796 2563
448 1809 2740
690 1852 2913
873 1898 3097
1035 1937 3268
1184 1955 3404
1317 1988 3508
1437 2013 3568
1545 2012 3561
1653 1931 3490
1777 1622 3338
1965 582 3283
2188 0 3419
2454 0 3618
252 1845 567
264 1856 611
282 1870 673
294 1886 771
283 1893 888
265 1912 1026
259 1928 1144
262 1937 1258
250 1947 1369
219 1959 1479
189 1964 1597
176 1957 1714
189 1937 1841
210 1921 1964
225 1899 2065
242 1892 2177
270 1892 2299
301 1899 2427
350 1915 2571
392 1929 2727
578 1957 2904
823 2017 3100
1003 2056 3281
1161 2085 3421
1317 2112 3564
1444 2133 3697
1556 2160 3713
1659 2138 3643
1761 2040 3551
1883 1725 3408
2110 371 3344
2365 0 3538
193 1962 595
237 1981 657
259 1995 731
248 2006 833
202 2006 958
198 2021 1087
212 2033 1192
228 2048 1290
229 2062 1393
200 2076 1496
157 2085 1611
136 2090 1726
183 2084 1847
225 2073 1963
233 2059 2070
253 2039 2190
275 2027 2318
292 2025 2443
340 2032 2575
401 2045 2721
482 2057 2880
727 2122 3098
954 2166 3280
1123 2211 3442
1298 2239 3588
1446 2270 3726
1569 2294 3793
1687 2300 3742
1795 2266 3672
1891 2155 3590
1989 1815 3463
2257 107 3427
124 2090 653
161 2105 709
173 2120 780
136 2127 917
87 2108 1115
102 2110 1171
132 2129 1226
159 2154 1306
176 2174 1414
160 2182 1518
121 2185 1617
122 2194 1719
181 2206 1836
212 2213 1953
217 2211 2048
219 2180 2161
228 2153 2307
254 2151 2444
309 2146 2568
369 2155 2707
457 2176 2861
550 2199 3071
864 2279 3280
1084 2322 3450
1265 2362 3595
1428 2404 3739
1564 2436 3806
1697 2452 3781
1820 2440 3743
1936 2394 3693
2040 2274 3633
2107 1910 3520
0 2202 748
27 2224 759
42 2245 804
5 2253 999
0 2227 1216
31 2223 1177
74 2239 1201
106 2250 1270
126 2253 1378
133 2256 1484
124 2267 1604
115 2308 1726
130 2340 1830
139 2326 1934
162 2317 2031
189 2315 2154
193 2284 2304
208 2267 2444
268 2262 2570
315 2270 2696
390 2291 2844
504 2311 3012
689 2360 3252
998 2438 3445
1210 2480 3621
1398 2528 3751
1547 2572 3850
1693 2599 3831
1828 2602 3802
1952 2594 3768
2072 2543 3725
2188 2404 3678
0 2306 845
0 2337 784
0 2352 856
0 2366 1096
0 2367 1221
2 2368 1203
42 2364 1211
62 2356 1280
70 2350 1371
73 2345 1465
63 2348 1581
44 2379 1706
53 2437 1816
61 2430 1913
53 2369 1988
79 2378 2130
123 2382 2313
195 2375 2433
235 2374 2564
274 2380 2698
314 2399 2832
397 2423 2975
561 2448 3168
834 2520 3417
1126 2589 3618
1357 2649 3781
1529 2681 3878
1688 2724 3900
1830 2745 3883
1966 2760 3849
2108 2745 3810
2243 2687 3774
0 2424 716
0 2430 734
0 2430 842
0 2432 1009
0 2427 1163
0 2421 1231
0 2416 1261
0 2429 1308
0 2437 1375
0 2428 1450
0 2419 1544
0 2423 1634
0 2442 1710
0 2435 1795
0 2391 1869
0 2389 2043
30 2461 2283
111 2479 2398
143 2486 2531
172 2489 2670
195 2499 2810
256 2523 2931
398 2555 3104
624 2580 3299
956 2684 3594
1256 2746 3776
1483 2788 3924
1661 2837 3985
1821 2867 3966
1981 2898 3930
2142 2905 3890
2296 2883 3858
0 2545 570
0 2531 657
0 2513 752
0 2506 880
0 2485 1009
0 2440 1152
0 2415 1270
0 2432 1338
0 2470 1388
0 2484 1442
0 2484 1499
0 2477 1530
0 2481 1580
0 2515 1700
0 2515 1819
0 2527 2006
0 2573 2243
0 2597 2358
0 2605 2489
18 2601 2626
34 2600 2776
66 2618 2894
152 2652 3046
375 2682 3233
689 2721 3415
1083 2823 3751
1390 2898 3937
1616 2943 4025
1791 2980 4034
1971 3022 3989
2151 3047 3948
2323 3049 3920
0 2628 469
0 2607 571
0 2595 714
0 2588 846
0 2576 948
0 2560 1049
0 2516 1149
0 2482 1270
0 2495 1379
0 2529 1444
0 2563 1451
0 2612 1469
0 2643 1541
0 2644 1629
0 2628 1737
0 2620 1924
0 2672 2178
0 2705 2290
0 2712 2390
0 2705 2546
0 2696 2717
0 2706 2843
0 2730 2980
0 2756 3128
304 2795 3337
761 2859 3536
1236 2987 3904
1527 3067 4051
1741 3094 4070
1939 3132 4037
2140 3176 3993
2347 3193 3974
0 2768 378
0 2757 548
0 2747 705
0 2733 808
0 2711 916
0 2678 983
0 2638 1057
0 2599 1160
0 2572 1262
0 2564 1368
0 2626 1342
0 2689 1362
0 2725 1446
0 2743 1527
0 2728 1625
0 2703 1801
0 2741 2069
0 2781 2193
0 2787 2284
0 2775 2431
0 2764 2622
0 2777 2701
0 2808 2816
0 2838 2962
0 2877 3202
222 2915 3426
832 2952 3639
1370 3152 4034
1663 3213 4079
1892 3243 4080
2122 3294 4042
2359 3322 4021
0 2983 360
0 2967 533
0 2931 642
0 2897 748
0 2835 813
0 2789 864
0 2745 947
0 2691 1035
0 2642 1091
0 2601 1141
0 2590 1172
0 2631 1209
0 2710 1333
0 2771 1410
0 2790 1460
0 2770 1637
0 2783 1919
0 2811 2065
0 2811 2150
0 2786 2295
0 2785 2489
0 2844 2492
0 2942 2539
0 2987 2758
0 3016 3042
0 3027 3291
107 3019 3517
946 3025 3753
1516 3274 4065
1807 3349 4091
2051 3394 4075
2340 3442 4052
0 3247 321
0 3159 422
0 3104 505
0 3028 557
0 2958 607
0 2877 692
0 2782 774
0 2643 817
0 2468 856
0 2313 833
0 2157 908
0 2153 961
0 2373 1140
0 2580 1258
0 2706 1219
0 2739 1421
0 2737 1722
0 2775 1890
0 2761 1959
0 2721 2102
0 2766 2245
0 2960 2103
0 3164 2256
0 3243 2511
0 3268 2833
0 3239 3126
0 3183 3435
0 3116 3589
1099 3117 3834
1672 3372 4059
1953 3474 4083
2273 3543 4078
0 3395 124
0 3318 152
0 3226 199
0 3117 298
0 3021 367
0 2925 409
0 2830 364
0 2637 341
0 2465 240
0 2024 76
0 1817 194
0 1646 287
0 1875 607
0 2187 848
0 2541 823
0 2657 1184
0 2594 1443
0 2540 1649
0 2441 1702
0 2452 1785
0 2758 1843
0 3252 1612
0 3477 1919
0 3573 2220
0 3600 2587
0 3550 2938
0 3470 3327
0 3359 3562
0 3232 3662
1258 3229 3910
1818 3487 4059
2144 3609 4088
0 3396 0
0 3270 0
0 3147 0
0 3111 0
0 3070 0
0 2932 0
0 2801 0
0 2749 0
0 2529 0
0 2395 0
0 1975 0
0 1883 0
0 1785 0
0 1891 0
0 2201 150
0 2281 803
0 2160 1060
0 2118 1281
0 2135 1301
0 2426 1246
0 3086 1071
0 3604 1060
0 3829 1449
0 3960 1842
0 3982 2271
0 3930 2712
0 3822 3171
0 3687 3524
0 3534 3688
0 3352 3735
1386 3327 3962
1950 3630 4074
0 3473 0
0 3472 0
0 3468 0
0 3441 0
0 3405 0
0 3364 0
0 3282 0
0 3194 0
0 3133 0
0 2868 0
0 2818 0
0 2699 0
0 2686 0
0 2657 0
0 2404 0
0 1876 0
0 1420 423
0 1326 669
0 1765 584
0 2773 497
0 3722 260
0 4051 418
0 4084 819
0 4088 1283
0 4089 1850
0 4088 2358
0 4085 2955
0 4083 3447
0 3954 3706
0 3737 3814
0 3494 3825
1511 3437 3992
0 4083 0
0 4091 0
0 4065 0
0 4045 0
