src/assets/lut_64.3dl
# Created with LUTCalc v4.06 by Ben Turley February 2024 #
# IDENTIFICATION: LUTCalc - 3DLUT
# CREATOR: LUTCalc v4.06
# USER: LUTCalc
# DATA: 2024-07-11T09:19:20 #
# NUMBER OF COLUMNS: 3
# NUMBER OF ROWS: 32768
# NUMBER OF NODES: 32
# INPUT RANGE: 10
# OUTPUT RANGE: 12
# TITLE : Custom LUT
# DESCRIPTION : S-Log3/Sony S-Gamut3.cine (Venice) -> LA - lutCreatorJs_64/LA - lutCreatorJs_64, Stop Shift 0.00, Black Level 8.32% IRE, Data Input -> Legal Output
0 33 66 99 132 165 198 231 264 297 330 363 396 429 462 495 528 561 594 627 660 693 726 759 792 825 858 891 924 957 990 1023
152 208 226
153 208 256
153 209 288
153 208 338
146 218 388
140 207 476
128 204 594
103 187 713
97 181 850
97 177 992
97 167 1152
97 156 1275
97 148 1420
97 135 1541
97 121 1670
97 103 1813
97 90 1984
97 71 2154
97 41 2320
97 94 2386
272 97 2589
523 97 2718
898 97 2813
1072 97 3026
1024 97 2920
1461 97 3299
1690 97 3438
1318 97 2532
1487 97 3051
1446 0 2968
1232 0 3858
3262 0 4095
151 243 242
151 243 255
151 243 305
144 255 342
136 251 405
120 244 497
100 244 624
97 239 756
97 225 888
97 209 1026
97 191 1164
97 184 1298
97 174 1430
97 167 1565
97 154 1695
97 142 1830
97 123 1991
97 99 2144
97 68 2311
97 95 2404
191 97 2586
506 97 2721
867 97 2820
1060 97 3024
1037 97 2941
1458 97 3298
1677 97 3435
1330 97 2576
1500 97 3074
1457 0 2992
1249 0 3864
3254 0 4095
157 276 241
149 273 273
149 288 305
141 288 358
124 300 437
103 291 530
97 302 654
97 286 780
97 279 920
97 261 1048
97 254 1191
97 243 1318
97 215 1450
97 195 1574
97 187 1712
97 176 1842
97 157 2000
97 129 2140
97 98 2299
97 96 2422
164 97 2583
487 97 2722
837 97 2826
1048 97 3020
1049 97 2960
1454 97 3297
1665 97 3432
1342 97 2619
1512 97 3095
1469 0 3016
1267 0 3868
3246 0 4095
152 349 240
135 343 274
136 359 322
130 356 389
107 369 455
97 370 559
97 369 689
97 361 807
97 353 950
97 344 1079
97 323 1212
97 306 1346
97 288 1472
97 272 1589
97 261 1723
97 241 1857
97 201 2015
97 169 2154
97 132 2299
97 98 2441
140 97 2581
460 97 2721
810 97 2833
1036 97 3017
1062 97 2978
1450 97 3295
1654 97 3429
1354 97 2666
1524 97 3114
1481 0 3043
1286 0 3870
3238 0 4095
141 452 252
120 461 282
105 459 344
99 464 410
96 462 491
97 474 595
97 474 722
97 469 846
97 466 982
97 448 1111
97 431 1239
97 405 1367
97 390 1496
97 367 1612
97 359 1745
97 326 1874
97 293 2029
97 242 2161
97 176 2312
97 128 2447
119 97 2579
422 97 2721
787 97 2839
1024 97 3013
1075 97 2996
1445 97 3294
1644 97 3427
1367 97 2707
1536 97 3134
1492 0 3069
1305 0 3873
3230 0 4095
103 595 241
94 598 282
94 615 346
97 601 412
97 618 527
97 621 633
97 613 759
97 606 884
97 603 1014
97 579 1144
97 562 1271
97 533 1391
97 518 1519
97 490 1634
97 473 1765
97 442 1892
97 405 2049
97 354 2182
97 281 2320
97 183 2458
111 113 2589
380 97 2721
763 97 2845
1011 97 3009
1087 97 3014
1440 97 3292
1634 97 3424
1380 97 2745
1547 97 3156
1503 0 3091
1324 0 3875
3222 0 4095
96 770 210
97 776 268
97 787 335
97 781 412
97 783 523
97 796 662
97 790 806
97 787 929
97 774 1047
97 761 1181
97 741 1304
97 715 1422
97 698 1548
97 671 1664
97 652 1799
97 623 1928
97 587 2072
97 529 2206
97 454 2334
97 357 2477
100 196 2597
339 104 2724
720 97 2852
992 97 3002
1105 97 3039
1433 97 3289
1622 97 3421
1397 97 2803
1561 97 3186
1518 0 3120
1349 0 3880
3212 0 4095
97 938 199
97 929 243
97 935 322
97 951 418
97 946 528
97 962 669
97 972 828
97 960 957
97 954 1095
97 940 1213
97 915 1335
97 892 1450
97 869 1571
97 842 1694
97 827 1825
97 804 1954
97 775 2106
97 737 2237
97 687 2367
97 612 2499
97 470 2616
277 280 2735
696 105 2863
965 97 2992
1129 97 3071
1421 97 3285
1606 97 3417
1422 97 2877
1581 97 3222
1538 0 3163
1384 0 3891
3196 0 4095
97 1105 177
97 1115 241
97 1101 302
97 1132 420
97 1123 531
97 1120 651
97 1139 847
97 1157 989
97 1154 1130
97 1117 1238
97 1103 1363
97 1070 1481
97 1055 1603
97 1030 1723
97 1011 1856
97 991 1985
97 964 2132
97 929 2262
97 887 2390
97 832 2521
97 763 2642
250 646 2769
669 401 2872
948 110 2997
1159 97 3107
1404 97 3278
1588 97 3413
1457 97 2976
1607 97 3268
1563 0 3218
1431 0 3909
3173 0 4095
97 1298 165
97 1301 220
97 1285 297
97 1299 425
97 1314 532
97 1282 667
97 1312 825
97 1325 996
97 1335 1152
97 1317 1259
97 1297 1400
97 1267 1520
97 1244 1629
97 1222 1750
97 1207 1884
97 1187 2021
97 1157 2163
97 1127 2288
97 1083 2415
97 1044 2544
97 991 2666
228 911 2790
661 799 2904
942 592 3018
1165 134 3130
1377 97 3266
1568 97 3409
1504 97 3101
1642 97 3333
1598 0 3283
1491 0 3927
3141 0 4095
97 1481 136
97 1483 233
97 1475 340
97 1468 404
97 1481 556
97 1467 642
97 1493 822
97 1500 1001
97 1508 1133
97 1495 1289
97 1496 1400
97 1490 1551
97 1453 1656
97 1422 1779
97 1403 1913
97 1377 2044
97 1354 2190
97 1318 2313
97 1289 2439
97 1247 2559
97 1211 2690
211 1156 2804
663 1068 2922
954 951 3039
1177 756 3157
1363 186 3266
1550 97 3407
1564 97 3254
1690 97 3413
1645 0 3378
1561 0 3936
3103 0 4095
97 1662 161
97 1635 226
97 1657 323
97 1660 448
97 1640 557
97 1621 659
97 1655 850
97 1688 996
97 1684 1144
97 1686 1266
97 1719 1441
97 1690 1572
97 1663 1688
97 1626 1788
97 1612 1947
97 1581 2075
97 1557 2221
97 1526 2341
97 1495 2462
97 1461 2579
97 1422 2709
177 1369 2820
658 1307 2938
970 1232 3053
1201 1120 3175
1392 917 3293
1549 354 3415
1648 97 3448
1761 97 3509
1719 0 3482
1641 0 3936
3047 0 4095
97 1803 170
97 1829 261
97 1856 371
97 1832 432
97 1852 598
97 1856 714
97 1892 902
97 1793 929
97 1852 1125
97 1864 1294
97 1878 1429
97 1879 1599
97 1875 1745
97 1857 1868
97 1829 1982
97 1782 2104
97 1757 2249
97 1727 2363
97 1689 2485
97 1661 2601
97 1625 2722
154 1585 2838
663 1538 2955
976 1477 3077
1217 1405 3194
1415 1284 3311
1576 1077 3436
1715 555 3557
1842 97 3619
1827 0 3606
1765 0 3937
2968 0 4095
97 1964 171
97 2005 274
97 2035 365
97 2008 488
97 2010 663
97 2007 735
97 2087 854
97 1949 957
97 1983 1125
97 2027 1305
97 2035 1412
97 2047 1604
97 2026 1743
97 2082 1913
97 2055 2013
97 1951 2097
97 1949 2268
97 1926 2393
97 1897 2508
97 1868 2625
97 1837 2741
138 1793 2856
649 1752 2971
986 1704 3090
1231 1648 3210
1433 1571 3317
1605 1456 3450
1760 1257 3574
1904 763 3687
1954 0 3737
1912 0 3937
2857 0 4095
97 2114 175
97 2184 371
97 2210 434
97 2189 454
97 2271 714
97 2176 715
97 2286 917
97 2151 885
97 2166 1118
97 2240 1342
97 2210 1424
97 2152 1591
97 2243 1759
97 2284 1884
97 2280 2104
97 2161 2085
97 2175 2286
97 2143 2432
97 2093 2534
97 2063 2642
97 2032 2760
118 1996 2869
623 1958 2986
998 1921 3105
1247 1880 3216
1457 1821 3328
1635 1744 3463
1787 1628 3581
1942 1433 3699
2058 943 3805
2082 0 3937
2696 0 4095
97 2265 271
97 2368 415
97 2277 482
97 2363 574
97 2382 786
97 2303 765
97 2436 955
97 2225 868
97 2396 1078
97 2378 1338
97 2363 1400
97 2315 1531
97 2424 1724
97 2479 1866
97 2503 1981
97 2243 2041
97 2305 2330
97 2360 2446
97 2290 2558
97 2254 2665
97 2225 2776
97 2194 2888
564 2162 3000
990 2124 3112
1259 2092 3231
1480 2045 3341
1657 1986 3467
1823 1915 3591
1978 1805 3698
2114 1606 3811
2206 1126 3919
2454 99 4080
97 2603 397
97 2477 489
97 2445 431
97 2634 643
97 2629 825
97 2454 776
97 2627 837
97 2610 1066
97 2549 1289
97 2367 1273
97 2449 1432
97 2451 1442
97 2709 1720
97 2681 1875
97 2478 1949
97 2582 2212
97 2471 2349
97 2449 2400
97 2505 2577
97 2453 2687
97 2437 2800
97 2405 2907
439 2373 3017
982 2338 3128
1264 2294 3238
1490 2256 3355
1671 2201 3473
1843 2144 3592
2014 2076 3697
2152 1969 3807
2270 1785 3908
2356 1309 4020
97 2524 484
97 2746 497
97 2651 617
97 2889 851
97 2911 875
97 2646 889
97 2660 947
97 2633 1084
97 2589 1347
97 2527 1220
97 2689 1356
97 2606 1504
97 2731 1894
97 2824 1956
97 2717 1933
97 2743 2067
97 2721 2223
97 2715 2450
97 2609 2506
97 2554 2698
97 2663 2848
97 2587 2926
158 2555 3031
907 2522 3140
1248 2488 3256
1495 2450 3366
1694 2415 3488
1878 2373 3600
2041 2318 3699
2193 2243 3804
2312 2124 3898
2419 1943 4000
0 2607 303
0 2811 470
49 2692 580
80 2889 1127
97 2771 1055
97 2608 1095
97 2941 1116
97 2841 1036
97 2823 1213
97 2823 1283
97 2825 1489
97 2698 1491
97 2941 1870
97 2959 2017
97 2721 1928
97 2848 2179
97 2829 2287
97 2652 2161
97 2584 2641
97 2812 2698
97 2853 2917
97 2768 2974
97 2737 3058
717 2701 3158
1195 2668 3276
1478 2626 3380
1701 2591 3498
1897 2555 3607
2078 2516 3704
2237 2471 3798
2370 2402 3893
2473 2296 3984
0 2954 598
0 2859 794
0 2945 517
0 3018 928
0 3020 976
0 2981 743
0 3170 1090
0 2900 1222
0 2908 1164
0 2888 1316
0 2882 1297
0 2784 1560
0 3082 1897
0 3126 2123
0 2864 2078
0 3116 2251
0 2757 2181
0 2449 2294
0 2861 2456
0 2852 2708
0 3114 2985
0 2879 3046
21 2863 3049
117 2867 3180
1047 2836 3287
1440 2795 3396
1697 2757 3508
1906 2725 3619
2093 2690 3712
2281 2662 3803
2415 2618 3883
2530 2545 3970
0 3086 682
5 2589 1011
0 2823 295
0 3278 1094
0 3075 1116
0 2949 809
16 3086 1229
0 2858 1308
0 2898 1359
0 2993 1217
0 2820 1317
0 2882 1576
39 2769 1748
54 2819 1868
88 3081 1723
85 3446 2228
61 3063 2211
98 3167 2597
129 3432 2550
127 3110 2677
134 3048 2858
142 3098 2800
156 3020 2975
150 3007 3289
473 2998 3304
1317 2967 3415
1663 2928 3528
1909 2891 3625
2106 2853 3718
2299 2829 3806
2475 2804 3883
2593 2757 3966
66 2841 499
102 2721 452
98 3255 1251
74 2798 1176
114 3252 808
86 2816 922
145 3630 1729
93 3130 948
76 3677 1292
91 3014 1350
87 2905 1368
48 2805 1065
139 3331 1289
158 2968 1599
122 2988 1937
156 3197 2674
141 2667 2152
226 2866 2679
153 3117 2424
136 2586 2445
183 3222 3024
187 3306 2732
197 3044 2662
353 3148 3293
363 3049 3254
821 3122 3430
1561 3083 3539
1883 3047 3642
2115 3009 3729
2320 2981 3813
2488 2952 3884
2657 2940 3960
58 2526 606
189 2651 1778
30 3382 555
132 2767 788
128 3035 693
152 3623 1875
162 3075 1764
117 2684 1200
144 3404 1090
134 3009 823
157 2430 1486
136 1913 1327
89 3666 1949
103 3355 1944
141 2459 1511
163 3323 2238
154 2307 2107
162 2895 2523
190 2688 2724
155 1996 2277
160 3142 2915
230 3501 2608
265 3273 2847
469 3351 3419
356 3055 3349
649 3187 3341
1123 3239 3559
1798 3205 3656
2097 3162 3742
2313 3130 3821
2510 3099 3883
2679 3082 3964
162 2971 1837
95 3256 668
92 2712 2025
73 2644 1210
149 3245 2398
152 2892 2035
101 2557 1211
125 3105 2373
135 3369 1728
187 3038 970
202 1789 665
117 1916 1050
119 3544 2733
139 3446 1622
200 2406 2550
317 3584 2042
384 3845 2849
167 3795 2314
144 4025 3083
161 3157 1822
187 3406 2011
266 3460 2985
364 3030 2678
488 3777 3210
303 3324 3595
344 3531 3517
754 3290 3692
1416 3352 3674
2020 3310 3756
2298 3270 3836
2509 3234 3900
2669 3204 3956
435 4035 1534
147 3645 1371
143 3574 1501
150 4033 2264
320 4070 2004
156 3973 1336
136 2755 1149
220 2739 1615
139 3037 1402
111 3939 1310
83 2980 1131
115 2817 2291
111 3123 2039
256 3940 1964
83 3900 2096
100 4024 1899
174 4050 2131
130 3297 1746
112 3954 2702
123 3096 2545
78 3579 3222
258 3742 2397
245 4027 3312
240 2682 3101
259 3418 3353
241 3552 3472
738 3585 3504
931 3489 3657
1673 3449 3782
2238 3414 3849
2499 3371 3906
2682 3336 3975
101 2537 1024
246 3464 1022
768 3652 1589
529 3648 1783
632 3651 684
556 3654 188
133 3654 275
61 3655 1489
189 3972 1954
780 2988 937
163 2960 1195
100 2852 1422
73 2204 3169
373 3387 3055
309 2802 1007
265 3988 2163
213 4095 2260
69 2397 1720
138 3716 3280
122 3023 3012
128 3412 1862
389 3887 3249
248 4016 3484
125 3938 3376
256 3798 3166
195 3285 2699
1348 3628 3651
893 3565 3417
1495 3199 3426
1924 3542 3867
2432 3500 3922
2673 3462 3976
433 4095 2174
177 2812 1958
59 135 1978
113 549 1643
155 2005 1351
116 3056 1176
61 3826 1175
0 4019 1986
0 2967 1141
0 2056 61
151 4084 162
320 3922 161
175 3331 2097
416 3491 2341
115 2152 1679
1167 3007 3616
152 3754 2535
0 4095 3962
241 4095 2720
16 2688 1299
235 3675 1984
171 3869 3422
472 4064 3863
804 2920 2654
526 4074 3066
611 3156 2593
1432 3938 3600
419 2213 2313
246 2244 3607
999 3164 3910
2158 3625 3936
2607 3589 3983
7 931 2122
0 3460 1910
0 4067 1639
0 4065 2728
123 4015 3795
177 3381 3999
0 170 2891
0 0 749
0 151 124
0 0 119
0 102 286
82 2843 1611
165 4095 3245
1562 4095 4024
789 1903 2826
1425 3390 3970
1199 3838 2625
1196 4079 2707
578 4095 1214
0 616 1293
0 3586 2954
79 4095 3351
768 4095 4095
813 4030 3469
1363 4095 4028
0 3870 3478
78 4044 3318
26 3698 1742
61 3123 156
173 3625 4029
1988 3784 3890
2362 3709 4000
0 4059 0
12 4095 49
90 4095 157
98 4095 376
